X:4738
T:El Chalaneru (Arrg. D)
M:4/4
L:1/4
Q:1/4=120
K:D
|:"D"FF/E/ "D"D2|"D"FF/G/ "D"AA/G/|"D"A4|"D"AA/A/ "D"A2|
"Bm"B>A "G"GA/G/|[1 "D"F4:|[2 "D"F2 "G"G>F|
|"A"EF/E/ "D"D2|"A"E>D "F#m"CD -|"D"D2 "D"F2|"G"G>F "A"EF/E/|
"D"D2 "A"E>D|"D"CD3|
